findly-builder/apps/searchassist/src/assets/icons/overview/expermintes-empty.svg

<svg width="114" height="100" viewBox="0 0 114 100" fill="none" xmlns="http://www.w3.org/2000/svg">
<rect x="0.753906" y="2" width="113" height="93" rx="4" fill="#F3F8FF"/>
<path d="M94.215 56.71C95.35 54.555 96 52.105 96 49.5C96 42.879 91.841 37.243 85.999 35.022C85.999 35.015 86 35.008 86 35C86 23.402 76.598 14 65 14C55.216 14 47.019 20.701 44.687 29.757C43.211 29.272 41.638 29 40 29C32.308 29 25.977 34.793 25.11 42.252C19.906 43.353 16 47.969 16 53.5C16 59.851 21.149 65 27.5 65C27.677 65 27.852 64.988 28.026 64.978C28.022 65.153 28 65.324 28 65.5C28 76.822 37.178 86 48.5 86C54.937 86 60.675 83.028 64.434 78.386C66.612 80.611 69.64 82 73 82C77.65 82 81.674 79.35 83.666 75.482C84.718 75.817 85.837 76 87 76C93.075 76 98 71.075 98 65C98 61.689 96.53 58.727 94.215 56.71Z" fill="#E7F1FF"/>
<path d="M25.405 48H15.5C15.224 48 15 47.776 15 47.5C15 47.224 15.224 47 15.5 47H25.405C25.681 47 25.905 47.224 25.905 47.5C25.905 47.776 25.682 48 25.405 48ZM28.5 48H27.5C27.224 48 27 47.776 27 47.5C27 47.224 27.224 47 27.5 47H28.5C28.776 47 29 47.224 29 47.5C29 47.776 28.777 48 28.5 48ZM33.491 50H24.5C24.224 50 24 49.776 24 49.5C24 49.224 24.224 49 24.5 49H33.491C33.767 49 33.991 49.224 33.991 49.5C33.991 49.776 33.767 50 33.491 50ZM22.5 50H21.5C21.224 50 21 49.776 21 49.5C21 49.224 21.224 49 21.5 49H22.5C22.776 49 23 49.224 23 49.5C23 49.776 22.777 50 22.5 50ZM19.5 50H17.5C17.224 50 17 49.776 17 49.5C17 49.224 17.224 49 17.5 49H19.5C19.776 49 20 49.224 20 49.5C20 49.776 19.777 50 19.5 50ZM25.5 52H23.5C23.224 52 23 51.776 23 51.5C23 51.224 23.224 51 23.5 51H25.5C25.776 51 26 51.224 26 51.5C26 51.776 25.776 52 25.5 52ZM28.5 43C28.323 43 27.677 43 27.5 43C27.224 43 27 43.224 27 43.5C27 43.776 27.224 44 27.5 44C27.677 44 28.323 44 28.5 44C28.776 44 29 43.776 29 43.5C29 43.224 28.776 43 28.5 43ZM28.5 45C28.323 45 23.677 45 23.5 45C23.224 45 23 45.224 23 45.5C23 45.776 23.224 46 23.5 46C23.677 46 28.323 46 28.5 46C28.776 46 29 45.776 29 45.5C29 45.224 28.776 45 28.5 45ZM33.5 47C33.323 47 30.677 47 30.5 47C30.224 47 30 47.224 30 47.5C30 47.776 30.224 48 30.5 48C30.677 48 33.323 48 33.5 48C33.776 48 34 47.776 34 47.5C34 47.224 33.776 47 33.5 47ZM92 64H82C81.724 64 81.5 63.776 81.5 63.5C81.5 63.224 81.724 63 82 63H92C92.276 63 92.5 63.224 92.5 63.5C92.5 63.776 92.276 64 92 64ZM96 64H94C93.724 64 93.5 63.776 93.5 63.5C93.5 63.224 93.724 63 94 63H96C96.276 63 96.5 63.224 96.5 63.5C96.5 63.776 96.276 64 96 64ZM101 66H91C90.724 66 90.5 65.776 90.5 65.5C90.5 65.224 90.724 65 91 65H101C101.276 65 101.5 65.224 101.5 65.5C101.5 65.776 101.277 66 101 66ZM89 66H88C87.724 66 87.5 65.776 87.5 65.5C87.5 65.224 87.724 65 88 65H89C89.276 65 89.5 65.224 89.5 65.5C89.5 65.776 89.276 66 89 66ZM85.875 66H84C83.724 66 83.5 65.776 83.5 65.5C83.5 65.224 83.724 65 84 65H85.875C86.151 65 86.375 65.224 86.375 65.5C86.375 65.776 86.151 66 85.875 66ZM95 62H90C89.724 62 89.5 61.776 89.5 61.5C89.5 61.224 89.724 61 90 61H95C95.276 61 95.5 61.224 95.5 61.5C95.5 61.776 95.277 62 95 62ZM92 68H90C89.724 68 89.5 67.776 89.5 67.5C89.5 67.224 89.724 67 90 67H92C92.276 67 92.5 67.224 92.5 67.5C92.5 67.776 92.276 68 92 68Z" fill="white"/>
<path d="M71.25 38.5C71.25 38.5 69.683 38.5 67.75 38.5C65.817 38.5 64.25 36.933 64.25 35C64.25 33.219 65.585 31.766 67.305 31.545C67.277 31.366 67.25 31.187 67.25 31C67.25 29.067 68.817 27.5 70.75 27.5C71.782 27.5 72.7 27.955 73.34 28.665C73.724 26.857 75.327 25.5 77.25 25.5C79.459 25.5 81.25 27.291 81.25 29.5C81.25 29.691 81.22 29.874 81.194 30.058C81.622 29.714 82.159 29.5 82.75 29.5C83.978 29.5 84.995 30.387 85.205 31.555C85.384 31.527 85.563 31.5 85.75 31.5C87.683 31.5 89.25 33.067 89.25 35C89.25 36.933 87.683 38.5 85.75 38.5C83.817 38.5 78.25 38.5 78.25 38.5V39H71.25V38.5Z" fill="white"/>
<path d="M69.5002 34.0002C69.6382 34.0002 69.7502 33.8882 69.7502 33.7502C69.7502 32.5272 68.7552 31.5322 67.5322 31.5322C67.4982 31.5412 66.7952 31.5312 66.2882 31.6682C66.1552 31.7042 66.0762 31.8412 66.1122 31.9742C66.1482 32.1082 66.2852 32.1872 66.4182 32.1502C66.8622 32.0302 67.5182 32.0302 67.5312 32.0322C68.4792 32.0322 69.2502 32.8032 69.2502 33.7502C69.2502 33.8882 69.3622 34.0002 69.5002 34.0002ZM76.2502 38.0002C76.1176 38.0002 75.9904 38.0529 75.8967 38.1467C75.8029 38.2404 75.7502 38.3676 75.7502 38.5002C75.7502 38.6328 75.8029 38.76 75.8967 38.8538C75.9904 38.9475 76.1176 39.0002 76.2502 39.0002C76.3828 39.0002 76.51 38.9475 76.6038 38.8538C76.6975 38.76 76.7502 38.6328 76.7502 38.5002C76.7502 38.3676 76.6975 38.2404 76.6038 38.1467C76.51 38.0529 76.3828 38.0002 76.2502 38.0002Z" fill="#BDC1C6"/>
<path d="M67.75 39H71.25C71.526 39 71.75 38.776 71.75 38.5C71.75 38.224 71.526 38 71.25 38H67.75C66.096 38 64.75 36.654 64.75 35C64.75 33.504 65.875 32.232 67.368 32.041C67.502 32.023 67.623 31.953 67.704 31.845C67.785 31.737 67.819 31.601 67.798 31.468C67.775 31.314 67.75 31.16 67.75 31C67.75 29.346 69.096 28 70.75 28C71.6 28 72.388 28.355 72.969 29C73.094 29.139 73.29 29.198 73.469 29.148C73.651 29.099 73.79 28.953 73.829 28.769C74.17 27.165 75.609 26 77.25 26C79.18 26 80.75 27.57 80.75 29.5C80.75 29.643 80.729 29.78 80.709 29.918C80.68 30.121 80.772 30.356 80.951 30.458C81.13 30.56 81.347 30.576 81.507 30.448C81.872 30.155 82.301 30 82.75 30C83.716 30 84.542 30.691 84.713 31.644C84.761 31.911 85.009 32.09 85.282 32.049C85.436 32.025 85.59 32 85.75 32C87.404 32 88.75 33.346 88.75 35C88.75 36.654 87.404 38 85.75 38H78.25C77.974 38 77.75 38.224 77.75 38.5C77.75 38.776 77.974 39 78.25 39H85.75C87.956 39 89.75 37.206 89.75 35C89.75 32.794 87.956 31 85.75 31C85.691 31 85.634 31.002 85.576 31.006C85.162 29.82 84.039 29 82.75 29C82.401 29 82.061 29.061 81.739 29.18C81.574 26.847 79.624 25 77.25 25C75.419 25 73.784 26.127 73.097 27.774C72.417 27.276 71.595 27 70.75 27C68.544 27 66.75 28.794 66.75 31C66.75 31.048 66.751 31.095 66.754 31.142C65.011 31.59 63.75 33.169 63.75 35C63.75 37.206 65.544 39 67.75 39Z" fill="#9AA0A6"/>
<path d="M73.25 38C73.409 38 74.091 38 74.25 38C74.526 38 74.75 38.224 74.75 38.5C74.75 38.776 74.526 39 74.25 39C74.091 39 73.409 39 73.25 39C72.974 39 72.75 38.776 72.75 38.5C72.75 38.224 72.974 38 73.25 38Z" fill="#472B29"/>
<path d="M40.5212 76.3002C39.5172 76.3002 38.7002 75.4832 38.7002 74.4792V33.5212C38.7002 32.5172 39.5172 31.7002 40.5212 31.7002H72.4782C73.4822 31.7002 74.2992 32.5172 74.2992 33.5212V74.4782C74.2992 75.4822 73.4822 76.2992 72.4782 76.2992H40.5212V76.3002Z" fill="#85B7FE"/>
<path d="M72.478 32.4C73.097 32.4 73.6 32.903 73.6 33.522V74.478C73.6 75.097 73.097 75.6 72.478 75.6H40.522C39.903 75.6 39.4 75.097 39.4 74.478V33.522C39.4 32.903 39.903 32.4 40.522 32.4H72.478ZM72.478 31H40.522C39.129 31 38 32.129 38 33.522V74.478C38 75.871 39.129 77 40.522 77H72.478C73.871 77 75 75.871 75 74.478V33.522C75 32.129 73.871 31 72.478 31Z" fill="#803C25"/>
<path d="M41.7002 72.3002V35.7002H71.3002V65.7422L64.4912 72.3002H41.7002Z" fill="white"/>
<path d="M70.6 36.4V65.445L64.209 71.6H42.4V36.4H70.6ZM72 35H41V73H64.774L72 66.04V35Z" fill="#803C25"/>
<path d="M70.0618 66L64.9958 70.688L64.9668 66H70.0618Z" fill="#85B7FE"/>
<path d="M51.2082 38.3002C50.3772 38.3002 49.7002 37.7202 49.7002 37.0072V33.7742C49.7002 33.0622 50.0302 32.9522 50.1382 32.9162C50.1742 32.9032 50.2092 32.8892 50.2422 32.8712L54.1492 30.8122C55.2022 30.2972 56.1162 30.0532 57.0092 30.0532C57.9052 30.0532 58.8442 30.2992 59.9612 30.8252L63.8272 33.1342C63.8602 33.1542 63.8942 33.1702 63.9302 33.1842C64.2882 33.3252 64.2982 33.7282 64.2982 33.7742V37.0072C64.2982 37.7202 63.6212 38.3002 62.7902 38.3002H51.2082Z" fill="#93D3A2"/>
<path d="M57.011 30.753C57.786 30.753 58.611 30.969 59.605 31.43L63.47 33.734C63.512 33.759 63.555 33.782 63.599 33.802V37.006C63.599 37.327 63.229 37.599 62.791 37.599H51.208C50.77 37.599 50.4 37.327 50.4 37.006V33.772C50.4 33.671 50.411 33.599 50.422 33.555C50.472 33.535 50.521 33.513 50.569 33.488L54.439 31.449C55.411 30.974 56.228 30.753 57.011 30.753ZM57.011 29.353C55.984 29.353 54.968 29.633 53.824 30.192L49.917 32.25C49.187 32.495 49 33.188 49 33.773V37.007C49 38.108 49.989 39 51.208 39H62.791C64.011 39 65 38.108 65 37.007V33.773C65 33.385 64.812 32.777 64.187 32.532L60.262 30.192C59.076 29.633 58.038 29.353 57.011 29.353Z" fill="#803C25"/>
<path d="M57 32C56.7348 32 56.4804 32.1054 56.2929 32.2929C56.1054 32.4804 56 32.7348 56 33C56 33.2652 56.1054 33.5196 56.2929 33.7071C56.4804 33.8946 56.7348 34 57 34C57.2652 34 57.5196 33.8946 57.7071 33.7071C57.8946 33.5196 58 33.2652 58 33C58 32.7348 57.8946 32.4804 57.7071 32.2929C57.5196 32.1054 57.2652 32 57 32Z" fill="#472B29"/>
<path d="M65.1998 71.9998H63.7998V65.4998C63.7998 65.1128 64.1128 64.7998 64.4998 64.7998H70.9998V66.1998H65.1998V71.9998Z" fill="#803C25"/>
<path d="M33 81H27.25C24.765 81.75 22.75 79.735 22.75 77.25C22.75 74.917 24.532 73.021 26.805 72.795C26.783 72.614 26.75 72.437 26.75 72.25C26.75 69.765 28.765 67.75 31.25 67.75C32.688 67.75 33.953 68.436 34.777 69.486C34.917 66.85 37.079 64.75 39.75 64.75C42.511 64.75 44.75 66.989 44.75 69.75C44.75 70.196 44.673 70.62 44.563 71.032C45.205 70.255 46.163 69.75 47.25 69.75C49.031 69.75 50.484 71.085 50.705 72.805C50.886 72.783 51.063 72.75 51.25 72.75C53.735 72.75 55.75 74.765 55.75 77.25C55.75 79.735 53.735 81.75 51.25 81H41.75H36V82H33V81Z" fill="white"/>
<path d="M39.5002 64C42.5332 64 45.0002 66.467 45.0002 69.5C45.0002 69.516 45.0002 69.531 45.0002 69.547C45.6022 69.192 46.2902 69 47.0002 69C48.8312 69 50.4112 70.261 50.8582 72.005C50.9052 72.002 50.9522 72 51.0002 72C54.0992 72 56.5492 74.834 55.8932 78.047C55.4132 80.398 53.2042 82 50.8042 82H36.1252C35.8492 82 35.6252 81.776 35.6252 81.5C35.6252 81.224 35.8492 81 36.1252 81H50.8432C52.7632 81 54.5302 79.718 54.9142 77.837C55.4392 75.267 53.4792 73 51.0002 73C50.8832 73 50.7702 73.017 50.6572 73.032L50.5162 73.051C50.4952 73.054 50.4752 73.055 50.4542 73.055C50.2082 73.055 49.9922 72.87 49.9592 72.618C49.7682 71.125 48.4962 70 47.0002 70C46.1152 70 45.2772 70.401 44.6992 71.1C44.6012 71.218 44.4582 71.282 44.3132 71.282C44.2352 71.282 44.1572 71.264 44.0852 71.226C43.8762 71.119 43.7712 70.88 43.8312 70.653C43.9912 70.053 44.0332 69.584 43.9782 69.104C43.7382 66.977 42.0192 65.195 39.8862 65.016C37.3352 64.801 35.1612 66.744 35.0272 69.262C35.0162 69.47 34.8772 69.649 34.6782 69.712C34.6282 69.728 34.5772 69.736 34.5262 69.736C34.3762 69.736 34.2302 69.667 34.1342 69.544C33.3622 68.563 32.2212 68 31.0002 68C28.7942 68 27.0002 69.794 27.0002 72C27.0002 72.117 27.0172 72.23 27.0322 72.343L27.0512 72.484C27.0672 72.618 27.0292 72.752 26.9452 72.857C26.8612 72.962 26.7382 73.029 26.6052 73.042C24.2532 73.276 22.5632 75.471 23.1012 77.907C23.5092 79.76 25.2752 81 27.1732 81H33.1252C33.4012 81 33.6252 81.224 33.6252 81.5C33.6252 81.776 33.4012 82 33.1252 82H27.1872C24.7202 82 22.4792 80.296 22.0722 77.862C21.6102 75.099 23.4162 72.642 26.0032 72.122C26.0012 72.082 26.0002 72.041 26.0002 72C26.0002 69.243 28.2432 67 31.0002 67C32.1762 67 33.2932 67.416 34.1832 68.164C34.7812 65.76 36.9452 64 39.5002 64Z" fill="#9AA0A6"/>
<path d="M41.2506 71.25C42.6536 71.25 43.8596 72.249 44.1636 73.591C44.5306 73.369 44.9496 73.25 45.3756 73.25C46.5776 73.25 47.5736 74.147 47.7286 75.318C47.9316 75.273 48.1246 75.25 48.3136 75.25C49.8426 75.25 51.1246 76.45 51.2316 77.982C51.2406 78.12 51.1376 78.239 50.9996 78.249C50.9936 78.249 50.9876 78.249 50.9816 78.249C50.8516 78.249 50.7416 78.148 50.7326 78.017C50.6436 76.746 49.5816 75.749 48.3136 75.749C48.0846 75.749 47.8436 75.791 47.5756 75.876C47.5536 75.883 47.5306 75.886 47.5086 75.886C47.4536 75.886 47.3986 75.866 47.3526 75.832C47.2886 75.785 47.2506 75.703 47.2506 75.623C47.2506 74.589 46.4096 73.748 45.3756 73.748C44.9286 73.748 44.4906 73.916 44.1446 74.221C44.0976 74.262 44.0386 74.284 43.9796 74.284C43.9476 74.284 43.9166 74.278 43.8866 74.265C43.7986 74.23 43.7386 74.148 43.7316 74.053C43.6296 72.761 42.5406 71.748 41.2526 71.748C41.0446 71.748 40.8276 71.782 40.5706 71.855C40.5476 71.862 40.5236 71.865 40.5006 71.865C40.3916 71.865 40.2936 71.792 40.2616 71.683C40.2236 71.55 40.3006 71.412 40.4336 71.374C40.7336 71.29 40.9946 71.25 41.2506 71.25ZM27.3676 72.75C28.6936 72.75 29.8756 73.647 30.2416 74.932C30.2796 75.065 30.2026 75.203 30.0696 75.241C30.0466 75.248 30.0236 75.251 30.0016 75.251C29.8926 75.251 29.7926 75.179 29.7616 75.069C29.4566 73.998 28.4726 73.251 27.3686 73.251C27.2516 73.251 27.1386 73.265 27.0266 73.28C27.0146 73.282 27.0036 73.283 26.9916 73.283C26.8706 73.283 26.7626 73.191 26.7456 73.066C26.7266 72.929 26.8226 72.803 26.9596 72.785C27.0926 72.766 27.2286 72.75 27.3676 72.75Z" fill="#BDC1C6"/>
<path d="M57.9 47.5C57.9 48.2732 57.2732 48.9 56.5 48.9C55.7268 48.9 55.1 48.2732 55.1 47.5C55.1 46.7268 55.7268 46.1 56.5 46.1C57.2732 46.1 57.9 46.7268 57.9 47.5Z" fill="#FFF1ED" stroke="#FFBCA5" stroke-width="0.2"/>
<path d="M58.9 43C58.9 43.4971 58.4971 43.9 58 43.9C57.5029 43.9 57.1 43.4971 57.1 43C57.1 42.5029 57.5029 42.1 58 42.1C58.4971 42.1 58.9 42.5029 58.9 43Z" fill="#FFF1ED" stroke="#FFBCA5" stroke-width="0.2"/>
<path d="M54.9 42C54.9 42.4971 54.4971 42.9 54 42.9C53.5029 42.9 53.1 42.4971 53.1 42C53.1 41.5029 53.5029 41.1 54 41.1C54.4971 41.1 54.9 41.5029 54.9 42Z" fill="#FFF1ED" stroke="#FFBCA5" stroke-width="0.2"/>
<path d="M63.6238 61.3433L63.6273 61.3425L59.6256 54.1176V51.6471H60.5007C60.9837 51.6471 61.3757 51.2781 61.3757 50.8235C61.3757 50.3689 60.9837 50 60.5007 50H59.6256H54.3752H53.5002C53.0171 50 52.6251 50.3689 52.6251 50.8235C52.6251 51.2781 53.0171 51.6471 53.5002 51.6471H54.3752V54.1176L50.3736 61.3425L50.3771 61.3433C50.1548 61.6101 50.013 61.9387 50.0008 62.3011C49.9693 63.2358 50.882 64 51.8752 64H62.1248C63.118 64 64.0315 63.2358 63.9992 62.3011C63.9878 61.9387 63.846 61.6101 63.6238 61.3433Z" fill="#FFBCA5"/>
</svg>

<svg width="114" height="100" fill="none" xmlns="http://www.w3.org/2000/svg"><rect x=".754" y="2" width="113" height="93" rx="4" fill="#F3F8FF"/><path d="M94.215 56.71A15.423 15.423 0 0 0 96 49.5c0-6.621-4.159-12.257-10.001-14.478L86 35c0-11.598-9.402-21-21-21-9.784 0-17.981 6.701-20.313 15.757A14.982 14.982 0 0 0 40 29c-7.692 0-14.023 5.793-14.89 13.252C19.906 43.353 16 47.969 16 53.5 16 59.851 21.149 65 27.5 65c.177 0 .352-.012.526-.022-.004.175-.026.346-.026.522C28 76.822 37.178 86 48.5 86c6.437 0 12.175-2.972 15.934-7.614A11.948 11.948 0 0 0 73 82c4.65 0 8.674-2.65 10.666-6.518 1.052.335 2.171.518 3.334.518 6.075 0 11-4.925 11-11 0-3.311-1.47-6.273-3.785-8.29Z" fill="#E7F1FF"/><path d="M25.405 48H15.5a.5.5 0 0 1 0-1h9.905a.5.5 0 0 1 0 1Zm3.095 0h-1a.5.5 0 0 1 0-1h1a.5.5 0 0 1 0 1Zm4.991 2H24.5a.5.5 0 0 1 0-1h8.991a.5.5 0 0 1 0 1ZM22.5 50h-1a.5.5 0 0 1 0-1h1a.5.5 0 0 1 0 1Zm-3 0h-2a.5.5 0 0 1 0-1h2a.5.5 0 0 1 0 1Zm6 2h-2a.5.5 0 0 1 0-1h2a.5.5 0 0 1 0 1Zm3-9h-1a.5.5 0 0 0 0 1h1a.5.5 0 0 0 0-1Zm0 2h-5a.5.5 0 0 0 0 1h5a.5.5 0 0 0 0-1Zm5 2h-3a.5.5 0 0 0 0 1h3a.5.5 0 0 0 0-1ZM92 64H82a.5.5 0 0 1 0-1h10a.5.5 0 0 1 0 1Zm4 0h-2a.5.5 0 0 1 0-1h2a.5.5 0 0 1 0 1Zm5 2H91a.5.5 0 0 1 0-1h10a.5.5 0 0 1 0 1Zm-12 0h-1a.5.5 0 0 1 0-1h1a.5.5 0 0 1 0 1Zm-3.125 0H84a.5.5 0 0 1 0-1h1.875a.5.5 0 0 1 0 1ZM95 62h-5a.5.5 0 0 1 0-1h5a.5.5 0 0 1 0 1Zm-3 6h-2a.5.5 0 0 1 0-1h2a.5.5 0 0 1 0 1ZM71.25 38.5h-3.5a3.5 3.5 0 0 1-3.5-3.5 3.489 3.489 0 0 1 3.055-3.455A3.495 3.495 0 0 1 67.25 31a3.5 3.5 0 0 1 3.5-3.5c1.032 0 1.95.455 2.59 1.165a3.999 3.999 0 0 1 7.91.835c0 .191-.03.374-.056.558a2.475 2.475 0 0 1 1.556-.558c1.228 0 2.245.887 2.455 2.055.179-.028.358-.055.545-.055a3.5 3.5 0 1 1 0 7h-7.5v.5h-7v-.5Z" fill="#fff"/><path d="M69.5 34a.25.25 0 0 0 .25-.25 2.22 2.22 0 0 0-2.218-2.218c-.034.01-.737 0-1.244.136a.25.25 0 0 0 .13.482c.444-.12 1.1-.12 1.113-.118a1.72 1.72 0 0 1 1.72 1.718c0 .138.111.25.25.25Zm6.75 4a.5.5 0 1 0 0 1 .5.5 0 0 0 0-1Z" fill="#BDC1C6"/><path d="M67.75 39h3.5a.5.5 0 0 0 0-1h-3.5c-1.654 0-3-1.346-3-3a2.996 2.996 0 0 1 2.618-2.959.502.502 0 0 0 .43-.573c-.023-.154-.048-.308-.048-.468 0-1.654 1.346-3 3-3 .85 0 1.638.355 2.219 1a.498.498 0 0 0 .86-.231A3.514 3.514 0 0 1 77.25 26c1.93 0 3.5 1.57 3.5 3.5 0 .143-.021.28-.041.418-.029.203.063.438.242.54.179.102.396.118.556-.01A1.97 1.97 0 0 1 82.75 30c.966 0 1.792.691 1.963 1.644a.498.498 0 0 0 .569.405c.154-.024.308-.049.468-.049 1.654 0 3 1.346 3 3s-1.346 3-3 3h-7.5a.5.5 0 0 0 0 1h7.5c2.206 0 4-1.794 4-4a4.004 4.004 0 0 0-4.174-3.994A2.993 2.993 0 0 0 82.75 29c-.349 0-.689.061-1.011.18A4.506 4.506 0 0 0 77.25 25a4.523 4.523 0 0 0-4.153 2.774A3.979 3.979 0 0 0 70.75 27a4.004 4.004 0 0 0-3.996 4.142A3.999 3.999 0 0 0 63.75 35c0 2.206 1.794 4 4 4Z" fill="#9AA0A6"/><path d="M73.25 38h1a.5.5 0 0 1 0 1h-1a.5.5 0 0 1 0-1Z" fill="#472B29"/><path d="M40.521 76.3a1.823 1.823 0 0 1-1.82-1.82V33.52c0-1.004.816-1.82 1.82-1.82h31.957c1.004 0 1.821.816 1.821 1.82v40.957a1.823 1.823 0 0 1-1.82 1.821H40.52v.001Z" fill="#85B7FE"/><path d="M72.478 32.4c.619 0 1.122.503 1.122 1.122v40.956c0 .619-.503 1.122-1.122 1.122H40.522a1.123 1.123 0 0 1-1.122-1.122V33.522c0-.619.503-1.122 1.122-1.122h31.956Zm0-1.4H40.522A2.522 2.522 0 0 0 38 33.522v40.956A2.522 2.522 0 0 0 40.522 77h31.956A2.522 2.522 0 0 0 75 74.478V33.522A2.522 2.522 0 0 0 72.478 31Z" fill="#803C25"/><path d="M41.7 72.3V35.7h29.6v30.042L64.491 72.3h-22.79Z" fill="#fff"/><path d="M70.6 36.4v29.045L64.209 71.6H42.4V36.4h28.2ZM72 35H41v38h23.774L72 66.04V35Z" fill="#803C25"/><path d="m70.062 66-5.066 4.688-.03-4.688h5.096Z" fill="#85B7FE"/><path d="M51.208 38.3c-.83 0-1.508-.58-1.508-1.293v-3.233c0-.712.33-.822.438-.858a.742.742 0 0 0 .104-.045l3.907-2.059c1.053-.515 1.967-.759 2.86-.759.896 0 1.835.246 2.952.772l3.866 2.31c.033.02.067.035.103.05.358.14.368.543.368.59v3.232c0 .713-.677 1.293-1.508 1.293H51.208Z" fill="#93D3A2"/><path d="M57.011 30.753c.775 0 1.6.216 2.594.677l3.865 2.304c.042.025.085.048.129.068v3.204c0 .321-.37.593-.808.593H51.208c-.438 0-.808-.272-.808-.593v-3.234c0-.101.011-.173.022-.217.05-.02.099-.042.147-.067l3.87-2.039c.972-.475 1.789-.696 2.572-.696Zm0-1.4c-1.027 0-2.043.28-3.187.839l-3.907 2.058c-.73.245-.917.938-.917 1.523v3.234c0 1.101.989 1.993 2.208 1.993h11.583c1.22 0 2.209-.892 2.209-1.993v-3.234c0-.388-.188-.996-.813-1.241l-3.925-2.34c-1.186-.559-2.224-.839-3.251-.839Z" fill="#803C25"/><path d="M57 32a1 1 0 1 0 0 2 1 1 0 0 0 0-2Z" fill="#472B29"/><path d="M65.2 72h-1.4v-6.5a.7.7 0 0 1 .7-.7H71v1.4h-5.8V72Z" fill="#803C25"/><path d="M33 81h-5.75c-2.485.75-4.5-1.265-4.5-3.75 0-2.333 1.782-4.229 4.055-4.455-.022-.181-.055-.358-.055-.545a4.5 4.5 0 0 1 4.5-4.5c1.438 0 2.703.686 3.527 1.736.14-2.636 2.302-4.736 4.973-4.736a5 5 0 0 1 5 5c0 .446-.077.87-.187 1.282a3.475 3.475 0 0 1 2.687-1.282 3.489 3.489 0 0 1 3.455 3.055c.181-.022.358-.055.545-.055a4.5 4.5 0 0 1 4.5 4.5c0 2.485-2.015 4.5-4.5 3.75H36v1h-3v-1Z" fill="#fff"/><path d="M39.5 64c3.033 0 5.5 2.467 5.5 5.5v.047A3.933 3.933 0 0 1 47 69a3.998 3.998 0 0 1 3.858 3.005A2.22 2.22 0 0 1 51 72a5.009 5.009 0 0 1 4.893 6.047C55.413 80.398 53.204 82 50.804 82H36.125a.5.5 0 0 1 0-1h14.718c1.92 0 3.687-1.282 4.071-3.163A4.006 4.006 0 0 0 51 73c-.117 0-.23.017-.343.032l-.14.019a.502.502 0 0 1-.557-.433A2.996 2.996 0 0 0 47 70a2.98 2.98 0 0 0-2.3 1.1.503.503 0 0 1-.615.126.5.5 0 0 1-.254-.573c.16-.6.202-1.069.147-1.549-.24-2.127-1.959-3.909-4.092-4.088-2.55-.215-4.725 1.728-4.859 4.246a.5.5 0 0 1-.893.282C33.362 68.563 32.221 68 31 68c-2.206 0-4 1.794-4 4 0 .117.017.23.032.343l.02.141a.5.5 0 0 1-.447.558 3.98 3.98 0 0 0-3.504 4.865C23.51 79.76 25.275 81 27.173 81h5.952a.5.5 0 0 1 0 1h-5.938c-2.467 0-4.708-1.704-5.115-4.138a4.973 4.973 0 0 1 3.931-5.74A5.006 5.006 0 0 1 31 67c1.176 0 2.293.416 3.183 1.164A5.486 5.486 0 0 1 39.5 64Z" fill="#9AA0A6"/><path d="M41.25 71.25c1.404 0 2.61.999 2.914 2.341a2.344 2.344 0 0 1 1.212-.341c1.202 0 2.198.897 2.353 2.068a2.69 2.69 0 0 1 .585-.068 2.94 2.94 0 0 1 2.918 2.732.25.25 0 0 1-.232.267h-.018a.25.25 0 0 1-.25-.232 2.44 2.44 0 0 0-2.418-2.268c-.23 0-.47.042-.738.127a.222.222 0 0 1-.067.01.266.266 0 0 1-.156-.054.264.264 0 0 1-.102-.209 1.877 1.877 0 0 0-1.875-1.875c-.447 0-.885.168-1.231.473a.252.252 0 0 1-.165.063.231.231 0 0 1-.093-.019.247.247 0 0 1-.155-.212 2.507 2.507 0 0 0-2.48-2.305c-.207 0-.424.034-.681.107a.25.25 0 0 1-.137-.481c.3-.084.56-.124.817-.124Zm-13.882 1.5c1.326 0 2.508.897 2.874 2.182a.25.25 0 1 1-.48.137 2.504 2.504 0 0 0-2.393-1.818c-.117 0-.23.014-.342.029a.251.251 0 0 1-.281-.214.249.249 0 0 1 .214-.281c.133-.019.269-.035.408-.035Z" fill="#BDC1C6"/><path d="M57.9 47.5a1.4 1.4 0 1 1-2.8 0 1.4 1.4 0 0 1 2.8 0Zm1-4.5a.9.9 0 1 1-1.8 0 .9.9 0 0 1 1.8 0Zm-4-1a.9.9 0 1 1-1.8 0 .9.9 0 0 1 1.8 0Z" fill="#FFF1ED" stroke="#FFBCA5" stroke-width=".2"/><path d="M63.624 61.343h.003l-4.001-7.225v-2.47h.875c.483 0 .875-.37.875-.825 0-.454-.392-.823-.875-.823H53.5c-.483 0-.875.369-.875.824 0 .454.392.823.875.823h.875v2.47l-4.001 7.226h.003a1.574 1.574 0 0 0-.376.958c-.032.935.881 1.699 1.874 1.699h10.25c.993 0 1.906-.764 1.874-1.699a1.57 1.57 0 0 0-.375-.958Z" fill="#FFBCA5"/></svg>
